!!!OTL: 747b. An die Jungfrau Maria. / Ein sicilianisches Schifferlied (?)
!!!ARE: Europa, Mitteleuropa, Deutschland
!!!SCT: B0747A
!!!TXL: @@LAT
!!!YEM: Copyright 1995, estate of Helmut Schaffrath.
**kern	**text
*ICvox	*
*Ivox	*
*clefG2	*
*M2/4	*
*k[b-]	*
*F:	*
=1	=1
{4cc	O
4dd	sanc-
=2	=2
8.cc	-tis-
16b-	-si-
8aL	-ma,
8b-J}	.
=3	=3
{4cc	o
4dd	pi-
=4	=4
8.cc	-is-
16b-	-si-
4a}	-ma,
=5	=5
{4cc	dul-
4cc	-cis
=6	=6
4dd	vir-
8ee	-go
8ff	Ma-
=7	=7
4ee	-ri-
4dd	.
16ccLqq	.
16ddJqq	.
=8	=8
2cc}	-a!
=9	=9
{4cc	O
4dd	sanc-
=10	=10
8.cc	-tis-
16b-	-si-
8aL	-ma,
8b-J}	.
=11	=11
{4cc	o
4dd	pi-
=12	=12
8.cc	-is-
16b-	-si-
4a}	-ma,
=13	=13
{4cc	dul-
4cc	-cis
=14	=14
4dd	vir-
8ee	-go
8ff	Ma-
=15	=15
4ee	-ri-
4dd	.
16ccLqq	.
16ddJqq	.
=16	=16
2cc}	-a!
=17	=17
{8.gL	Ma-
16aJ	.
8g	-ter
8a	a-
=18	=18
8.b-L	-ma-
16ccJ	.
4b-}	-ta,
=19	=19
{8.aL	in-
16b-J	.
8a	-te-
8b-	-me-
=20	=20
8.ccL	-ra-
16ddJ	.
4cc}	-ta:
=21	=21
{8ffL	o-
8eeJ	.
8ddL	-ra,
8ccJ	.
=22	=22
8ffL	o-
8ddJ	.
8cc	-ra
8b-	pro
=23	=23
4a	no-
4g	.
16fqqL	.
16gqqJ	.
=24	=24
2f}	-bis.
=25	=25
{8.gL	Ma-
16aJ	.
8g	-ter
8a	a-
=26	=26
8.b-L	-ma-
16ccJ	.
4b-}	-ta,
=27	=27
{8.aL	in-
16b-J	.
8a	-te-
8b-	-me-
=28	=28
8.ccL	-ra-
16ddJ	.
4cc}	-ta:
=29	=29
{8ffL	o-
8eeJ	.
8ddL	-ra,
8ccJ	.
=30	=30
8ffL	o-
8ddJ	.
8cc	-ra
8b-	pro
=31	=31
4a	no-
4g	.
16fqqL	.
16gqqJ	.
=32	=32
2f}	-bis.
==	==
!!!AGN: Marien - Lied, religioes
!!!GTL: Religioese Lieder
!!!ONB: ESAC (Essen Associative Code) Database: BOEHME
!!!AMT: simple duple
!!!AIN: vox
!!!EED: Helmut Schaffrath
!!!EEV: 1.0
!!!URL-scan: https://archive.org/details/BoehmeVtLieder1895/page/n599/mode/2up
!!!ENC: Anna Maria Matuszewska
!!!EEV: 2024/18/07
*-	*-
